X:11
T:Reel 11
M:4/4
K:Fmaj
L:1/8
cB|ABcf afcA|GABd gefe|ABce ffcB|ABGA F2cB|ABce fecA|BdcA BGEG|ABcA fefd|cfeg f2|ef|gfga bagf|efga bgab|gfga bagf|efge f2cd|efga bagf|efga b2ab|c'abg afgf|cffe fgfd|
